material/.icons/material/truck-fast-outline.svg

<svg xmlns="http://www.w3.org/2000/svg" viewBox="0 0 24 24"><path d="M.75 7.5h9.75l.75 1.5H1.5L.75 7.5m1 3h9.75l.75 1.5H2.5l-.75-1.5m16.25 8c.83 0 1.5-.67 1.5-1.5s-.67-1.5-1.5-1.5-1.5.67-1.5 1.5.67 1.5 1.5 1.5m1.5-9H17V12h4.46L19.5 9.5M8 18.5c.83 0 1.5-.67 1.5-1.5s-.67-1.5-1.5-1.5-1.5.67-1.5 1.5.67 1.5 1.5 1.5M20 8l3 4v5h-2c0 1.66-1.34 3-3 3s-3-1.34-3-3h-4c0 1.66-1.35 3-3 3-1.66 0-3-1.34-3-3H3v-3.5h2V15h.76c.55-.61 1.35-1 2.24-1 .89 0 1.69.39 2.24 1H15V6H3c0-1.11.89-2 2-2h12v4h3z"/></svg>

<?xml version="1.0" encoding="UTF-8"?><!DOCTYPE svg PUBLIC "-//W3C//DTD SVG 1.1//EN" "http://www.w3.org/Graphics/SVG/1.1/DTD/svg11.dtd"><svg xmlns="http://www.w3.org/2000/svg" xmlns:xlink="http://www.w3.org/1999/xlink" version="1.1" id="mdi-truck-fast-outline" width="24" height="24" viewBox="0 0 24 24"><path d="M.75 7.5H10.5L11.25 9H1.5L.75 7.5M1.75 10.5H11.5L12.25 12H2.5L1.75 10.5M18 18.5C18.83 18.5 19.5 17.83 19.5 17C19.5 16.17 18.83 15.5 18 15.5C17.17 15.5 16.5 16.17 16.5 17C16.5 17.83 17.17 18.5 18 18.5M19.5 9.5H17V12H21.46L19.5 9.5M8 18.5C8.83 18.5 9.5 17.83 9.5 17C9.5 16.17 8.83 15.5 8 15.5C7.17 15.5 6.5 16.17 6.5 17C6.5 17.83 7.17 18.5 8 18.5M20 8L23 12V17H21C21 18.66 19.66 20 18 20C16.34 20 15 18.66 15 17H11C11 18.66 9.65 20 8 20C6.34 20 5 18.66 5 17H3V13.5 13.5H5V15H5.76C6.31 14.39 7.11 14 8 14C8.89 14 9.69 14.39 10.24 15H15V6H3V6C3 4.89 3.89 4 5 4H17V8H20Z" /></svg>
